X:1
T:Title
%%score { ( 1 4 ) | ( 2 3 ) }
L:1/8
M:6/8
K:Ab
V:1 treble nm="Grand Piano"
V:4 treble 
V:2 bass 
V:3 bass 
V:1
 z3 z2[Q:1/4=100] [Ec] | [CA]2 [DF] [CE]2 [Ec] | [CA]2 [DF] [CE]2 [CE] | %3
 [DF]2 [DF] .[=DB]2 [B,DF] | [CEA]3 [B,EG]2 [Ec] | [CA]2 [DF] [CE]2 [Ec] | [CA]2 [DF] [CE]2 [EA] | %7
 [EG]2 [EG] [=DF]2 [DB] | E3- E2 E | E2 B G2 E | [CE]2 [Cc] [CA]2 [CE] | %11
 [DF]2 [DF] .[=DB]2 [B,DF] | [CEA]3 [CEG]2 [G,DE] | [A,CA]2 [CA] [C_GB]2 [EGc] | [Fe]2 [Fd] F2 F | %15
 E2 d c2 B | [CA]6 | c3 z3 | F3 z3 | c3 z3 | F3 z3 | E2 B G2 E | [CE]2 [Ec] [CA]2 [A,EA] | %23
 .[B,EG]2 [Ge] [F=d]2 [Ad] | [Ge]6 | c3 z3 | F3 z3 | c3 z3 | F3 z3 | E2 B G2 E | %30
 [CE]2 [Ec] [_Ge]2 [Ge] | [Fe]2 [Fd] [Ec]2 [DB] |[M:5/8] [CA]-[CA]- [CA]3 |] %33
V:2
 z3 z2 [A,,A,] | [A,,E,]2 [A,,F,] [A,,A,]2 [A,,A,] | [A,,E,]2 [A,,F,] [A,,A,]2 [A,,A,] | %3
 [D,A,]2 [D,A,] z AB,, | E,3 E,2 [A,,A,] | [A,,E,]2 [A,,F,] [A,,A,]2 [A,,A,] | %6
 [A,,E,]2 [A,,F,] [A,,A,]2 [C,A,] | [B,,B,]2 [B,,B,] [B,,A,]2 [B,,A,] | [E,G,]3- [E,G,]2 G, | %9
 [E,G,D]2 [E,G,D] [E,B,D]2 [E,G,D] | [A,,A,]2 [A,,A,] [A,,A,]2 [A,,A,] | [D,A,]2 [D,A,] z AB,, | %12
 E,3 E,2 E, | A,,2 A, A,2 A, | [D,D]2 [D,D] [D,A,D]2 [D,A,D] | [E,A,C]2 [E,A,F] [E,G,E]2 [E,G,D] | %16
 [A,,A,]6 | [A,CE]2 [A,C] [A,CE]2 [A,C] | [A,_C=D]2 [A,C] [A,=C]2 [A,C] | %19
 [A,CE]2 [A,C] [A,CE]2 [A,C] | [A,_C=D]2 [A,C] [A,=C]2 [A,C] | [E,G,D]2 [E,G,D] [E,B,D]2 [E,G,D] | %22
 [A,,A,]2 [A,,A,] [A,,A,]2 C, | z[K:treble] B[K:bass][B,,B,] [B,,B,]2 [B,,B,] | B,3 z3 | %25
 [A,CE]2 [A,C] [A,CE]2 [A,C] | [A,_C=D]2 [A,C] [A,=C]2 [A,C] | [A,CE]2 [A,C] [A,CE]2 [A,C] | %28
 [A,_C=D]2 [A,C] [A,=C]2 [A,C] | [E,G,D]2 [E,G,D] [E,B,D]2 [E,G,D] | %30
 [A,,A,]2 [A,,A,] [C,A,]2 [C,A,] | [D,A,]2 [D,A,] [E,A,]2 [E,G,] | %32
[M:5/8] [A,,A,]-[A,,A,]- [A,,A,]3 |] %33
V:3
 x6 | x6 | x6 | z3 .[B,,A,]3 | x6 | x6 | x6 | x6 | x6 | x6 | x6 | z3 .[B,,A,]3 | x6 | x6 | x6 | %15
 x6 | x6 | x6 | x6 | x6 | x6 | x6 | x6 | .B,,3[K:treble][K:bass] z3 | E,6 | x6 | x6 | x6 | x6 | %29
 x6 | x6 | x6 |[M:5/8] x5 |] %33
V:4
 x6 | x6 | x6 | x6 | x6 | x6 | x6 | x6 | x6 | x6 | x6 | x6 | x6 | x6 | x6 | x6 | x6 | z2 E BAE | %18
 z2 =D E2 E | z2 E BAE | z2 =D E2 E | x6 | x6 | x6 | z3 D3 | z2 E BAE | z2 =D E2 E | z2 E BAE | %28
 z2 =D E2 E | x6 | x6 | x6 |[M:5/8] x5 |] %33

